wall-sconce-flat-outline.svg

<svg fill="currentColor" viewBox="0 0 24 24"><path d="M5 5v6h14V5zm12 4H7V7h10zM5.27 13.32 3.5 15.09l1.41 1.41 1.77-1.77zm13.46 0-1.41 1.41 1.77 1.77 1.41-1.41zM11 16v3h2v-3z"/></svg>

<svg  viewBox="0 0 24 24" fill="currentColor"><path  d="M5 5V11H19V5H5M17 9H7V7H17V9M5.27 13.32L3.5 15.09L4.91 16.5L6.68 14.73L5.27 13.32M18.73 13.32L17.32 14.73L19.09 16.5L20.5 15.09L18.73 13.32M11 16V19H13V16H11Z"/></svg>
